X: 21287
T: Kelly's
R: polka
M: 2/4
K: Amajor
|:EA Ac|Be c2|eA Ac|BA FE|
AB/A/ FE|Ac ea|f2 ec|1 BA AF:|2 BA Aa||
|:f2 df|ba af|e2 ce|fe c/B/A|
B2 AB|ce f2|ee de|1 cA ce:|2 cA AF||

